src/images_karasa_jaga_svg/cmd/sc_combine.svg

<svg height="16" width="16" xmlns="http://www.w3.org/2000/svg" xmlns:xlink="http://www.w3.org/1999/xlink"><linearGradient id="a"><stop offset="0" stop-color="#717174"/><stop offset=".5" stop-color="#9c9ca1"/><stop offset="1" stop-color="#bdbdc2"/></linearGradient><linearGradient id="b" gradientTransform="matrix(0 .57141947 .76189347 0 -2.475975 42.984941)" gradientUnits="userSpaceOnUse" x1="119.57646" x2="15.999996" xlink:href="#c" y1="23.792561" y2="109.6508"/><linearGradient id="c"><stop offset="0" stop-color="#fff"/><stop offset=".42597079" stop-color="#fff"/><stop offset=".5892781" stop-color="#e5e5e5"/><stop offset=".80219781" stop-color="#eaeaea"/><stop offset="1" stop-color="#eee"/></linearGradient><linearGradient id="d" gradientTransform="matrix(0 -1.3692663 -1.7142582 0 101.14142 195.38729)" gradientUnits="userSpaceOnUse" x1="102.31124" x2="74.330322" xlink:href="#e" y1="-5.830213" y2="32"/><linearGradient id="e"><stop offset="0" stop-color="#fff"/><stop offset="1" stop-color="#fff" stop-opacity="0"/></linearGradient><linearGradient id="f" gradientUnits="userSpaceOnUse" x1="129.65916" x2="99.298172" xlink:href="#e" y1="16.993765" y2="48.481419"/><linearGradient id="g" gradientUnits="userSpaceOnUse" x1="43.517578" x2="112" xlink:href="#a" y1="45.241211" y2="44.185516"/><linearGradient id="h" gradientUnits="userSpaceOnUse" x1="46.591778" x2="118.24603" y1="39.999996" y2="39.999996"><stop offset="0" stop-color="#b4b4b6"/><stop offset=".5" stop-color="#9c9ca1"/><stop offset="1" stop-color="#cdcdd1"/></linearGradient><linearGradient id="i" gradientUnits="userSpaceOnUse" x1="61.112431" x2="126.06644" xlink:href="#c" y1="74.825134" y2="-16"/><linearGradient id="j" gradientTransform="matrix(.06940294 0 0 -.11152913 8.766347 177.28781)" gradientUnits="userSpaceOnUse" x1="-11.041996" x2="1141.647" xlink:href="#a" y1="904.03656" y2="872.30853"/><g transform="scale(.125)"><path d="m84.001953 3.015625a40.984135 40.984135 0 0 0 -40.783203 36.984375h6.605469 35.455078c1.50754 0 2.720703 1.410773 2.720703 3.164062v35 3.671876 2.912109a40.984135 40.984135 0 0 0 36.98438-40.75 40.984135 40.984135 0 0 0 -40.982427-40.982422z" fill="url(#h)"/><path d="m84.007812 9.5585938a34.440138 34.440138 0 0 0 -34.183593 30.4414062h35.455078c1.50754 0 2.720703 1.410771 2.720703 3.164062v35a34.440138 34.440138 0 0 0 30.44922-34.166015 34.440138 34.440138 0 0 0 -34.441408-34.4394532z" fill="url(#i)"/><path d="m10.720703 40c-1.5075379 0-2.720703 1.410771-2.720703 3.164062v73.671878c0 1.75329 1.2131651 3.16406 2.720703 3.16406h74.558594c1.50754 0 2.720703-1.41077 2.720703-3.16406v-38.671878a34.440138 34.440138 0 0 1 -3.992188.275391 34.440138 34.440138 0 0 1 -34.439453-34.441406 34.440138 34.440138 0 0 1 .25586-3.998047zm6.544922 8h25.953125a40.984135 40.984135 0 0 0 36.78125 36.746094v25.730466c0 .84418-.564285 1.52344-1.265625 1.52344h-61.46875c-.70134 0-1.265625-.67926-1.265625-1.52344v-60.953122c0-.844178.564285-1.523438 1.265625-1.523438z" fill="url(#j)" opacity=".75"/><g fill-rule="evenodd"><path d="m17.523438 48c-.844178 0-1.523438.564277-1.523438 1.265625v61.468755c0 .70134.67926 1.26562 1.523438 1.26562h60.953124c.844178 0 1.523438-.56428 1.523438-1.26562v-25.95313a40.984135 40.984135 0 0 1 -36.746094-36.78125z" fill="url(#b)"/><path d="m48.171875 63.802734c-11.017627 1.97927-22.420865 3.195018-32.171875 4.197266v37.26953c15.53623-6.256844 33.960648-14.989315 49.066406-24.958983a40.984135 40.984135 0 0 1 -16.894531-16.507813z" fill="url(#d)"/><path d="m110.57617 22.123047c-12.361184 6.496423-26.921183 13.420362-41.185545 17.876953h15.888672c1.50754 0 2.720703 1.410771 2.720703 3.164062v21.158204c10.890843-8.621232 21.19992-17.865986 29.99023-25.828125a34.440138 34.440138 0 0 0 -7.41406-16.371094z" fill="url(#f)"/></g><path d="m43.253906 40c-.143884 1.328035-.222754 2.66231-.236328 3.998047.0018 1.336466.0689 2.672047.201172 4.001953 1.927966 19.453071 17.326344 34.836732 36.78125 36.746094 1.329331.144011 2.664912.222881 4.001953.236328 1.335164-.001894 2.669437-.069031 3.998047-.201172v-6.617188-35.443359c0-1.507538-1.410771-2.720703-3.164062-2.720703h-35.011719zm6.591797 8h28.630859c.844178 0 1.523438.564285 1.523438 1.265625v25.953125l.0016 2.987022c.000024.04513-5.588125-.834461-7.03871-1.621788-12.571782-4.274766-21.566195-15.396195-23.117187-28.583984z" fill="url(#g)" opacity=".75"/></g></svg>

<?xml version="1.0" encoding="UTF-8" standalone="no"?>
<!-- Created with Inkscape (http://www.inkscape.org/) -->

<svg
   xmlns:dc="http://purl.org/dc/elements/1.1/"
   xmlns:cc="http://creativecommons.org/ns#"
   xmlns:rdf="http://www.w3.org/1999/02/22-rdf-syntax-ns#"
   xmlns:svg="http://www.w3.org/2000/svg"
   xmlns="http://www.w3.org/2000/svg"
   xmlns:xlink="http://www.w3.org/1999/xlink"
   xmlns:sodipodi="http://sodipodi.sourceforge.net/DTD/sodipodi-0.dtd"
   xmlns:inkscape="http://www.inkscape.org/namespaces/inkscape"
   width="128"
   height="128"
   id="svg1307"
   sodipodi:version="0.32"
   inkscape:version="0.92.3 (unknown)"
   version="1.0"
   sodipodi:docname="sc_combine.svg"
   inkscape:export-filename="/home/rizmut/Dokumen/Rizmut/Github/libreoffice-style-karasa-jaga/build/images_karasa_jaga/cmd/sc_combine.png"
   inkscape:export-xdpi="12"
   inkscape:export-ydpi="12"
   inkscape:output_extension="org.inkscape.output.svgz.inkscape">
  <defs
     id="defs1309">
    <linearGradient
       id="linearGradient2783">
      <stop
         style="stop-color:#323232;stop-opacity:1;"
         offset="0"
         id="stop2785" />
      <stop
         id="stop2787"
         offset="0.07692308"
         style="stop-color:#dfe1e1;stop-opacity:1;" />
      <stop
         style="stop-color:#b6b1b1;stop-opacity:1;"
         offset="0.26289096"
         id="stop2799" />
      <stop
         id="stop2789"
         offset="0.5"
         style="stop-color:#8d8282;stop-opacity:1;" />
      <stop
         style="stop-color:#ffffff;stop-opacity:1;"
         offset="0.78201604"
         id="stop2791" />
      <stop
         style="stop-color:#dfd9df;stop-opacity:1;"
         offset="0.9005897"
         id="stop2793" />
      <stop
         style="stop-color:#3a3a3a;stop-opacity:1;"
         offset="1"
         id="stop2795" />
    </linearGradient>
    <linearGradient
       id="linearGradient2431">
      <stop
         style="stop-color:#ffffff;stop-opacity:1;"
         offset="0"
         id="stop2433" />
      <stop
         id="stop2435"
         offset="0.42597079"
         style="stop-color:#ffffff;stop-opacity:1;" />
      <stop
         id="stop2437"
         offset="0.5892781"
         style="stop-color:#f1f1f1;stop-opacity:1;" />
      <stop
         style="stop-color:#eaeaea;stop-opacity:1;"
         offset="0.80219781"
         id="stop2439" />
      <stop
         style="stop-color:#dfdfdf;stop-opacity:1;"
         offset="1"
         id="stop2441" />
    </linearGradient>
    <linearGradient
       id="linearGradient7422">
      <stop
         style="stop-color:#b4b4b6;stop-opacity:1;"
         offset="0"
         id="stop7424" />
      <stop
         id="stop5348"
         offset="0.5"
         style="stop-color:#9c9ca1;stop-opacity:1;" />
      <stop
         id="stop7426"
         offset="1"
         style="stop-color:#cdcdd1;stop-opacity:1;" />
    </linearGradient>
    <clipPath
       clipPathUnits="userSpaceOnUse"
       id="clipPath10698">
      <path
         style="fill:#ffffff;fill-opacity:1;fill-rule:nonzero;stroke:none;stroke-width:0.80000001;stroke-linecap:round;stroke-linejoin:round;stroke-miterlimit:4;stroke-dasharray:none;stroke-dashoffset:4;stroke-opacity:1"
         d="M -128.2008,-3.392377 L -104.45558,6.3360672 L -102.43766,6.1757677 L -103.81912,-4.5678172 L -105.75454,-5.8316609 L -124.96922,-4.4459394 L -128.2008,-3.392377 z "
         id="path10700"
         sodipodi:nodetypes="ccccccc" />
    </clipPath>
    <filter
       inkscape:collect="always"
       id="filter4420">
      <feGaussianBlur
         inkscape:collect="always"
         stdDeviation="3.0486726"
         id="feGaussianBlur4422" />
    </filter>
    <mask
       maskUnits="userSpaceOnUse"
       id="mask4424">
      <rect
         style="opacity:1;fill:#ffffff;fill-opacity:1;stroke:none;stroke-width:0.163;stroke-linecap:round;stroke-linejoin:round;stroke-miterlimit:4;stroke-dasharray:none;stroke-opacity:1;filter:url(#filter4420)"
         id="rect4426"
         width="112"
         height="100"
         x="12"
         y="4"
         rx="1.1997639"
         ry="1.4444447"
         transform="matrix(1.1453342,0,0,1.1453342,-3.2375486,-15.52592)" />
    </mask>
    <linearGradient
       id="linearGradient3323">
      <stop
         style="stop-color:#c7cdd7;stop-opacity:1;"
         offset="0"
         id="stop3325" />
      <stop
         style="stop-color:#ffffff;stop-opacity:1;"
         offset="1"
         id="stop3327" />
    </linearGradient>
    <linearGradient
       id="linearGradient4199">
      <stop
         style="stop-color:#f1f1f1;stop-opacity:1;"
         offset="0"
         id="stop4201-6" />
      <stop
         style="stop-color:#ffffff;stop-opacity:1;"
         offset="1"
         id="stop4203" />
    </linearGradient>
    <linearGradient
       id="linearGradient2399-5-5">
      <stop
         id="stop2401-5-5"
         offset="0"
         style="stop-color:#0968ef;stop-opacity:1;" />
      <stop
         id="stop2403-6-4"
         offset="1"
         style="stop-color:#aecffc;stop-opacity:1;" />
    </linearGradient>
    <linearGradient
       x1="399.77466"
       y1="1164.6696"
       x2="399.77466"
       y2="549.06134"
       id="linearGradient5507"
       xlink:href="#linearGradient7422-3"
       gradientUnits="userSpaceOnUse"
       gradientTransform="matrix(0.09253752,0,0,0.14870594,30.566011,47.945876)" />
    <linearGradient
       id="linearGradient7422-3">
      <stop
         id="stop7424-5"
         style="stop-color:#717174;stop-opacity:1"
         offset="0" />
      <stop
         id="stop5348-6"
         style="stop-color:#9c9ca1;stop-opacity:1"
         offset="0.5" />
      <stop
         id="stop7426-2"
         style="stop-color:#cdcdd1;stop-opacity:1"
         offset="1" />
    </linearGradient>
    <radialGradient
       cx="-33.5"
       cy="194.5"
       r="5.5"
       fx="-33.5"
       fy="194.5"
       id="radialGradient5509"
       xlink:href="#linearGradient2399"
       gradientUnits="userSpaceOnUse"
       gradientTransform="matrix(6.6492665,0,0,6.6492656,305.03583,-1117.9053)" />
    <linearGradient
       id="linearGradient2399">
      <stop
         id="stop2401"
         style="stop-color:#a9cbfc;stop-opacity:1"
         offset="0" />
      <stop
         id="stop2403"
         style="stop-color:#aecffc;stop-opacity:1"
         offset="1" />
    </linearGradient>
    <radialGradient
       cx="194.5"
       cy="-33.5"
       r="5.5"
       fx="194.5"
       fy="-33.5"
       id="radialGradient5511"
       xlink:href="#linearGradient2222"
       gradientUnits="userSpaceOnUse"
       gradientTransform="matrix(4.9357767,0,0,4.9357767,-870.64796,211.73605)" />
    <linearGradient
       id="linearGradient2222">
      <stop
         id="stop2224"
         style="stop-color:#8fbcff;stop-opacity:1"
         offset="0" />
      <stop
         id="stop2226"
         style="stop-color:#80b3ff;stop-opacity:1"
         offset="1" />
    </linearGradient>
    <linearGradient
       x1="399.77466"
       y1="1164.6696"
       x2="399.77466"
       y2="549.06134"
       id="linearGradient5501"
       xlink:href="#linearGradient4373"
       gradientUnits="userSpaceOnUse"
       gradientTransform="matrix(0,0.06940294,0.11152913,0,32.703527,46.639005)" />
    <linearGradient
       id="linearGradient4373">
      <stop
         id="stop4375"
         style="stop-color:#717174;stop-opacity:1"
         offset="0" />
      <stop
         id="stop4377"
         style="stop-color:#9c9ca1;stop-opacity:1"
         offset="0.5" />
      <stop
         id="stop4379"
         style="stop-color:#bdbdc2;stop-opacity:1"
         offset="1" />
    </linearGradient>
    <linearGradient
       x1="119.57646"
       y1="23.792561"
       x2="15.999996"
       y2="109.6508"
       id="linearGradient5503"
       xlink:href="#linearGradient2431-9"
       gradientUnits="userSpaceOnUse"
       gradientTransform="matrix(0,0.57141947,0.76189347,0,-2.4759754,42.984941)" />
    <linearGradient
       id="linearGradient2431-9">
      <stop
         id="stop2433-1"
         style="stop-color:#ffffff;stop-opacity:1"
         offset="0" />
      <stop
         id="stop2435-2"
         style="stop-color:#ffffff;stop-opacity:1"
         offset="0.42597079" />
      <stop
         id="stop2437-7"
         style="stop-color:#e5e5e5;stop-opacity:1"
         offset="0.5892781" />
      <stop
         id="stop2439-0"
         style="stop-color:#eaeaea;stop-opacity:1"
         offset="0.80219781" />
      <stop
         id="stop2441-9"
         style="stop-color:#eeeeee;stop-opacity:1"
         offset="1" />
    </linearGradient>
    <linearGradient
       x1="102.31124"
       y1="-5.8302126"
       x2="74.330322"
       y2="32"
       id="linearGradient5505"
       xlink:href="#linearGradient3310"
       gradientUnits="userSpaceOnUse"
       gradientTransform="matrix(0,-1.3692663,-1.7142582,0,101.14142,195.38729)" />
    <linearGradient
       id="linearGradient3310">
      <stop
         id="stop3312"
         style="stop-color:#ffffff;stop-opacity:1"
         offset="0" />
      <stop
         id="stop3314"
         style="stop-color:#ffffff;stop-opacity:0"
         offset="1" />
    </linearGradient>
    <linearGradient
       inkscape:collect="always"
       xlink:href="#linearGradient7422"
       id="linearGradient1705"
       x1="116.93012"
       y1="39.081207"
       x2="57.647125"
       y2="38.292171"
       gradientUnits="userSpaceOnUse"
       gradientTransform="matrix(1.2145135,0,0,1.2145135,-22.013211,-2.1880421)" />
    <linearGradient
       inkscape:collect="always"
       xlink:href="#linearGradient4373"
       id="linearGradient1723"
       x1="0"
       y1="122"
       x2="12"
       y2="122"
       gradientUnits="userSpaceOnUse" />
    <linearGradient
       inkscape:collect="always"
       xlink:href="#linearGradient3310"
       id="linearGradient1755"
       x1="125.30612"
       y1="16"
       x2="100"
       y2="42.245205"
       gradientUnits="userSpaceOnUse"
       gradientTransform="matrix(1.1997488,0,0,1.1997488,-20.676706,-2.2022161)" />
    <linearGradient
       inkscape:collect="always"
       xlink:href="#linearGradient4373"
       id="linearGradient991"
       x1="43.517578"
       y1="45.241211"
       x2="112"
       y2="44.185516"
       gradientUnits="userSpaceOnUse" />
    <linearGradient
       inkscape:collect="always"
       xlink:href="#linearGradient7422"
       id="linearGradient993"
       gradientUnits="userSpaceOnUse"
       gradientTransform="matrix(1.2145135,0,0,1.2145135,-22.013211,-2.1880421)"
       x1="56.487629"
       y1="34.736576"
       x2="115.48594"
       y2="34.736576" />
    <linearGradient
       inkscape:collect="always"
       xlink:href="#linearGradient2431-9"
       id="linearGradient1018"
       gradientUnits="userSpaceOnUse"
       gradientTransform="matrix(1.1869564,0,0,1.1869564,-19.600606,-1.1400758)"
       x1="68"
       y1="64"
       x2="122.72316"
       y2="-12.519351" />
    <linearGradient
       inkscape:collect="always"
       xlink:href="#linearGradient4373"
       id="linearGradient1022"
       gradientUnits="userSpaceOnUse"
       gradientTransform="matrix(0.06940294,0,0,-0.11152913,8.766347,177.28781)"
       x1="-11.041996"
       y1="904.03656"
       x2="1141.647"
       y2="872.30853" />
  </defs>
  <sodipodi:namedview
     id="base"
     pagecolor="#ffffff"
     bordercolor="#666666"
     borderopacity="1.0"
     inkscape:pageopacity="0.0"
     inkscape:pageshadow="2"
     inkscape:zoom="2.8284271"
     inkscape:cx="123.94586"
     inkscape:cy="101.81365"
     inkscape:current-layer="layer1"
     showgrid="true"
     inkscape:document-units="px"
     inkscape:grid-bbox="true"
     guidetolerance="4"
     showguides="true"
     inkscape:guide-bbox="true"
     inkscape:window-width="1366"
     inkscape:window-height="706"
     inkscape:window-x="0"
     inkscape:window-y="0"
     objecttolerance="4"
     gridtolerance="4"
     inkscape:snap-nodes="true"
     inkscape:window-maximized="1">
    <sodipodi:guide
       orientation="horizontal"
       position="-32.073749"
       id="guide2204"
       inkscape:locked="false" />
    <inkscape:grid
       id="GridFromPre046Settings"
       type="xygrid"
       originx="0"
       originy="0"
       spacingx="8"
       spacingy="8"
       color="#0000ff"
       empcolor="#0000ff"
       opacity="0.2"
       empopacity="0.4"
       empspacing="1"
       visible="true"
       enabled="true" />
  </sodipodi:namedview>
  <metadata
     id="metadata1312">
    <rdf:RDF>
      <cc:Work
         rdf:about="">
        <dc:format>image/svg+xml</dc:format>
        <dc:type
           rdf:resource="http://purl.org/dc/dcmitype/StillImage" />
        <cc:license
           rdf:resource="http://creativecommons.org/licenses/GPL/2.0/" />
        <dc:contributor>
          <cc:Agent>
            <dc:title>Oxygen team</dc:title>
          </cc:Agent>
        </dc:contributor>
        <dc:title></dc:title>
      </cc:Work>
      <cc:License
         rdf:about="http://creativecommons.org/licenses/LGPL/2.1/">
        <cc:permits
           rdf:resource="http://web.resource.org/cc/Reproduction" />
        <cc:permits
           rdf:resource="http://web.resource.org/cc/Distribution" />
        <cc:requires
           rdf:resource="http://web.resource.org/cc/Notice" />
        <cc:permits
           rdf:resource="http://web.resource.org/cc/DerivativeWorks" />
        <cc:requires
           rdf:resource="http://web.resource.org/cc/ShareAlike" />
        <cc:requires
           rdf:resource="http://web.resource.org/cc/SourceCode" />
      </cc:License>
    </rdf:RDF>
  </metadata>
  <g
     id="layer1"
     inkscape:label="Layer 1"
     inkscape:groupmode="layer">
    <path
       style="opacity:1;vector-effect:none;fill:url(#linearGradient993);fill-opacity:1;stroke:none;stroke-width:7.45166254;stroke-linecap:butt;stroke-linejoin:miter;stroke-miterlimit:4;stroke-dasharray:none;stroke-dashoffset:0;stroke-opacity:1"
       d="M 84.001953 3.015625 A 40.984135 40.984135 0 0 0 43.21875 40 L 49.824219 40 L 85.279297 40 C 86.786837 40 88 41.410773 88 43.164062 L 88 78.164062 L 88 81.835938 L 88 84.748047 A 40.984135 40.984135 0 0 0 124.98438 43.998047 A 40.984135 40.984135 0 0 0 84.001953 3.015625 z "
       id="path1671" />
    <path
       style="opacity:1;vector-effect:none;fill:url(#linearGradient1018);fill-opacity:1;stroke:none;stroke-width:6.26184416;stroke-linecap:butt;stroke-linejoin:miter;stroke-miterlimit:4;stroke-dasharray:none;stroke-dashoffset:0;stroke-opacity:1"
       d="M 84.007812 9.5585938 A 34.440138 34.440138 0 0 0 49.824219 40 L 85.279297 40 C 86.786837 40 88 41.410771 88 43.164062 L 88 78.164062 A 34.440138 34.440138 0 0 0 118.44922 43.998047 A 34.440138 34.440138 0 0 0 84.007812 9.5585938 z "
       id="path1014" />
    <path
       style="opacity:0.75;fill:url(#linearGradient1022);fill-opacity:1;fill-rule:nonzero;stroke:none;stroke-width:13.71407032;stroke-linecap:round;stroke-linejoin:round;stroke-miterlimit:4;stroke-dasharray:none;stroke-dashoffset:4;stroke-opacity:1"
       d="M 10.720703 40 C 9.2131651 40 8 41.410771 8 43.164062 L 8 116.83594 C 8 118.58923 9.2131651 120 10.720703 120 L 85.279297 120 C 86.786837 120 88 118.58923 88 116.83594 L 88 78.164062 A 34.440138 34.440138 0 0 1 84.007812 78.439453 A 34.440138 34.440138 0 0 1 49.568359 43.998047 A 34.440138 34.440138 0 0 1 49.824219 40 L 10.720703 40 z M 17.265625 48 L 43.21875 48 A 40.984135 40.984135 0 0 0 80 84.746094 L 80 110.47656 C 80 111.32074 79.435715 112 78.734375 112 L 17.265625 112 C 16.564285 112 16 111.32074 16 110.47656 L 16 49.523438 C 16 48.67926 16.564285 48 17.265625 48 z "
       id="path1005" />
    <path
       style="fill:url(#linearGradient5503);fill-opacity:1;fill-rule:evenodd;stroke:none;stroke-width:54.85628128;stroke-linecap:round;stroke-linejoin:round;stroke-miterlimit:4;stroke-dasharray:none;stroke-opacity:1"
       d="M 17.523438 48 C 16.67926 48 16 48.564277 16 49.265625 L 16 110.73438 C 16 111.43572 16.67926 112 17.523438 112 L 78.476562 112 C 79.32074 112 80 111.43572 80 110.73438 L 80 84.78125 A 40.984135 40.984135 0 0 1 43.253906 48 L 17.523438 48 z "
       id="rect5491" />
    <rect
       width="146.28384"
       height="146.28384"
       x="-9.1419191"
       y="-9.1419172"
       id="rect5487"
       style="opacity:0;fill:#e7e7e7;fill-opacity:1;fill-rule:nonzero;stroke:none;stroke-width:9.14274025;stroke-linecap:round;stroke-miterlimit:4;stroke-dasharray:none;stroke-dashoffset:0;stroke-opacity:1" />
    <path
       style="fill:url(#linearGradient5505);fill-opacity:1;fill-rule:evenodd;stroke:none;stroke-width:6.85703516px;stroke-linecap:butt;stroke-linejoin:miter;stroke-opacity:1"
       d="M 48.171875 63.802734 C 37.154248 65.782004 25.75101 66.997752 16 68 L 16 105.26953 C 31.53623 99.012686 49.960648 90.280215 65.066406 80.310547 A 40.984135 40.984135 0 0 1 48.171875 63.802734 z "
       id="path5493" />
    <path
       style="fill:url(#linearGradient1755);fill-opacity:1;fill-rule:evenodd;stroke:none;stroke-width:8.14232635px;stroke-linecap:butt;stroke-linejoin:miter;stroke-opacity:1"
       d="M 110.57617 22.123047 C 98.214986 28.61947 83.654987 35.543409 69.390625 40 L 85.279297 40 C 86.786837 40 88 41.410771 88 43.164062 L 88 64.322266 C 98.890843 55.701034 109.19992 46.45628 117.99023 38.494141 A 34.440138 34.440138 0 0 0 110.57617 22.123047 z "
       id="path1751" />
    <path
       cx="84.001114"
       cy="43.998886"
       r="40.984135"
       style="opacity:1;vector-effect:none;fill:url(#linearGradient1705);fill-opacity:1;stroke:none;stroke-width:7.45166254;stroke-linecap:butt;stroke-linejoin:miter;stroke-miterlimit:4;stroke-dasharray:none;stroke-dashoffset:0;stroke-opacity:1"
       id="path904" />
    <path
       style="opacity:0.75;fill:url(#linearGradient991);fill-opacity:1;fill-rule:nonzero;stroke:none;stroke-width:13.71407032;stroke-linecap:round;stroke-linejoin:round;stroke-miterlimit:4;stroke-dasharray:none;stroke-dashoffset:4;stroke-opacity:1"
       d="m 43.253906,40 c -0.143884,1.328035 -0.222754,2.66231 -0.236328,3.998047 0.0018,1.336466 0.0689,2.672047 0.201172,4.001953 C 45.146716,67.453071 60.545094,82.836732 80,84.746094 c 1.329331,0.144011 2.664912,0.222881 4.001953,0.236328 C 85.337117,84.980528 86.67139,84.913391 88,84.78125 V 78.164062 42.720703 C 88,41.213165 86.589229,40 84.835938,40 H 49.824219 Z m 6.591797,8 H 78.476562 C 79.32074,48 80,48.564285 80,49.265625 V 75.21875 l 0.0016,2.987022 c 2.4e-5,0.04513 -5.588125,-0.834461 -7.03871,-1.621788 C 60.391108,72.309218 51.396695,61.187789 49.845703,48 Z"
       id="path926"
       inkscape:connector-curvature="0"
       sodipodi:nodetypes="cccccccsscccsscscc" />
  </g>
</svg>
